X:1
T:Jesus Wept
T:Jesus Wept
T:James McGranahan, 1895
T:Marguerite St. Leon Barstow Loud, ca. 1853
T:Public Domain Courtesy of the Cyber Hymnal™
T:Public Domain Courtesy of the Cyber Hymnal™
C:James McGranahan, 1895
Z:Public Domain
Z:Courtesy of the Cyber Hymnal™
%%score ( 1 2 ) ( 3 4 )
L:1/8
Q:1/4=88
M:4/4
K:Eb
V:1 treble 
V:2 treble 
V:3 bass 
V:4 bass 
V:1
 [EG]2 [EG][EG] [EG]3 [FA] | [GB][EG][Ac][GB] ([GB][^F=A]) [=F_A]2 | [FA]2 [B,D][CE] [DF]2 [FA]2 | %3
w: 1.~Draw near, ye wea- ry,|bowed and brok- en heart- * ed;|Ye on- ward trav- elers|
w: 2.~The bright and spot- less|Heir of end- less glo- * ry,|Wept o’er the woes of|
w: 3.~But with the friends He|loved, whose hopes had per- * ished,|The Sav- ior stood, while|
w: 4.~Lo! Je- sus’ power the|sleep of death has brok- * en,|And wiped the tear from|
 [Ec][EB][E=A][EB] [EG]4 | [EG]2 [EG][EA] [EB]3 [EG] | [EG][EA][EB][E_d] [Ed]2 [Ec]2 | %6
w: to a peace- ful bourne;|Ye, from whose path the|light has all de- part- ed;|
w: those He came to save;|And an- gels won- dered|when they heard the sto- ry,|
w: thro’ His bo- som rushed|A tide of sym- pa-|thy for those He cher- ished,|
w: sor- row’s droop- ing eye:|Look up, ye mourn- ers,|hear what He has spok- en,|
 [Fc]2 [Bd][=Ae] [Gd]G[^Fd][Fc] | [GB]2 =A2 [DG]4 | [DB]2 [DA][EG] [FA]2 [B,D]2 | %9
w: Ye, who are left in sol- i-|tude to mourn:|Tho’ o’er your spir- it|
w: That He who con- quered death, wept|o’er the grave.|For ’twas not when His|
w: And from His eyes the burn- ing|dew- drops gushed:|And bend- ing o’er the|
w: “He that be- lieves on Me shall|ne- ver die.”|Thro’ faith and love your|
 [B,E][EG][Ec][EB] ([EB]2 cd) | [Ge]2 [Fd][=E_d] [_Ec][EF][EB][EA] | [EG]3 [B,F] [B,E]4 |] %12
w: has the storm cloud swept, * *|Sac- red are sor- row’s tears since|“Je- sus wept.”|
w: lone- ly watch He kept * *|In dark Geth- sem- a- ne, that|“Je- sus wept.”|
w: tomb where La- zarus slept, * *|In a- go- ny of soul, then|“Je- sus wept.”|
w: spir- it shall be kept; * *|Hope bright- er grew on earth when|“Je- sus wept.”|
V:2
 x8 | x8 | x8 | x8 | x8 | x8 | x5 G x2 | x2 (^FD) x4 | x8 | x6 A2 | x8 | x8 |] %12
V:3
 [E,B,]2 [E,B,][E,B,] [E,B,]3 [E,E] | [E,E][E,B,][E,E][E,E] [B,,E]2 [B,,D]2 | %2
 [B,,D]2 [A,B,][G,B,] [F,B,]2 [D,B,]2 | [E,A,][E,G,][E,^F,][E,G,] [E,B,]4 | %4
 [E,B,]2 [E,B,][F,E] (E2 B,)[E,B,] | [E,B,][F,E][G,E][G,B,] [A,B,]2 A,2 | %6
 [F,=A,]2 [F,B,][^F,C] [G,B,][G,B,][D,A,][D,D] | [D,D]2 [D,C]2 [G,B,]4 | %8
 [F,B,]2 [B,,B,][F,B,] [D,B,]2 [A,B,]2 | [G,B,][E,B,]A,[G,B,] B,4 | %10
 [E,B,]2 [F,B,][G,B,] A,[A,,C][G,,_D][A,,C] | [B,,B,]3 [B,,A,] [E,G,]4 |] %12
V:4
 x8 | x8 | x8 | x8 | x4 G,3 x | x6 A,2 | x8 | x8 | x8 | x2 A, (G,2 F,2) x | x4 A, x3 | x8 |] %12

